Front/static/img/kkutu/currency/Win.svg

<svg width="64" height="64" viewBox="0 0 64 64" fill="none" xmlns="http://www.w3.org/2000/svg">
<rect x="1.5" y="1.5" width="61" height="61" rx="18.5" fill="url(#paint0_linear_80_30)" stroke="url(#paint1_linear_80_30)" stroke-width="3"/>
<path d="M41.0005 45.5H23.0005M41.0005 45.5C44.3142 45.5 47.0005 48.1863 47.0005 51.5H17.0005C17.0005 48.1863 19.6868 45.5 23.0005 45.5M41.0005 45.5V38.75C41.0005 37.5074 39.9932 36.5 38.7505 36.5H37.0072M23.0005 45.5V38.75C23.0005 37.5074 24.0079 36.5 25.2505 36.5H26.9938M37.0072 36.5H26.9938M37.0072 36.5C35.9126 34.6077 35.2195 32.454 35.0444 30.1554M26.9938 36.5C28.0884 34.6077 28.7816 32.454 28.9567 30.1554M18.5005 16.4727C16.5359 16.7584 14.5912 17.1055 12.6685 17.512C13.5691 22.847 17.9904 26.9856 23.4598 27.4555M18.5005 16.4727V17C18.5005 21.2156 20.4327 24.9798 23.4598 27.4555M18.5005 16.4727V13.4418C22.9114 12.821 27.4184 12.5 32.0005 12.5C36.5826 12.5 41.0897 12.821 45.5005 13.4418V16.4727M23.4598 27.4555C25.035 28.7437 26.9066 29.683 28.9567 30.1554M45.5005 16.4727V17C45.5005 21.2156 43.5683 24.9798 40.5412 27.4555M45.5005 16.4727C47.4651 16.7584 49.4098 17.1055 51.3326 17.512C50.432 22.847 46.0107 26.9856 40.5412 27.4555M40.5412 27.4555C38.9661 28.7437 37.0945 29.683 35.0444 30.1554M35.0444 30.1554C34.0661 30.3809 33.0472 30.5 32.0005 30.5C30.9538 30.5 29.9349 30.3809 28.9567 30.1554" stroke="white" stroke-width="4" stroke-linecap="round" stroke-linejoin="round"/>
<defs>
<linearGradient id="paint0_linear_80_30" x1="32" y1="0" x2="32" y2="64" gradientUnits="userSpaceOnUse">
<stop stop-color="#FFD435"/>
<stop offset="1" stop-color="#F5A623"/>
</linearGradient>
<linearGradient id="paint1_linear_80_30" x1="32" y1="0" x2="32" y2="64" gradientUnits="userSpaceOnUse">
<stop stop-color="white"/>
<stop offset="1" stop-color="white" stop-opacity="0.35"/>
</linearGradient>
</defs>
</svg>

<svg fill="none" viewBox="0 0 64 64"><rect width="61" height="61" x="1.5" y="1.5" fill="url(#paint0_linear_80_30)" stroke="url(#paint1_linear_80_30)" stroke-width="3" rx="18.5"/><path stroke="#fff" stroke-linecap="round" stroke-linejoin="round" stroke-width="4" d="M41 45.5H23m18 0a6 6 0 016 6H17a6 6 0 016-6m18 0v-6.75a2.25 2.25 0 00-2.25-2.25h-1.743m-14.006 9v-6.75a2.25 2.25 0 012.25-2.25h1.743m10.013 0H26.994m10.013 0a14.909 14.909 0 01-1.963-6.345m-8.05 6.345a14.909 14.909 0 001.963-6.345M18.5 16.473a92.627 92.627 0 00-5.832 1.039c.901 5.335 5.322 9.474 10.792 9.944M18.5 16.473V17c0 4.216 1.933 7.98 4.96 10.456M18.5 16.473v-3.031A96.797 96.797 0 0132 12.5c4.583 0 9.09.321 13.5.942v3.03M23.46 27.456a13.453 13.453 0 005.497 2.7M45.5 16.473V17c0 4.216-1.933 7.98-4.96 10.456m4.96-10.983c1.964.285 3.909.633 5.832 1.039-.901 5.335-5.322 9.474-10.792 9.944m0 0a13.452 13.452 0 01-5.497 2.7m0 0c-.978.225-1.997.344-3.043.344-1.047 0-2.066-.12-3.044-.345"/><defs><linearGradient id="paint0_linear_80_30" x1="32" x2="32" y1="0" y2="64" gradientUnits="userSpaceOnUse"><stop stop-color="#FFD435"/><stop offset="1" stop-color="#F5A623"/></linearGradient><linearGradient id="paint1_linear_80_30" x1="32" x2="32" y1="0" y2="64" gradientUnits="userSpaceOnUse"><stop stop-color="#fff"/><stop offset="1" stop-color="#fff" stop-opacity=".35"/></linearGradient></defs></svg>
